modules/defaultemblems/img/Takeda_mon.svg

<?xml version="1.0" encoding="UTF-8" standalone="no"?>
<!-- Created with Inkscape (http://www.inkscape.org/) -->
<!-- https://commons.wikimedia.org/wiki/File:Takeda_mon.svg -->
<svg height="138.00002" viewBox="0 0 200.00002 138.00002" width="200.00002" xmlns="http://www.w3.org/2000/svg">
  <g class="emblem-color" fill-rule="evenodd" transform="matrix(3.129199 0 0 3.136364 -25.03359 -301.0909)">
    <path d="m40 96-14.984416 10.03415 14.949979 9.98972 14.964145-10.01724z"/>
    <path d="m22.984416 107.97613-14.984416 10.03415 14.949979 9.98972 14.964145-10.01724z"/>
    <path d="m39.984416 119.97613-14.984416 10.03415 14.949979 9.98972 14.964145-10.01724z"/>
    <path d="m56.984416 107.97613-14.984416 10.03415 14.949979 9.98972 14.964145-10.01724z"/>
  </g>
</svg>

<?xml version="1.0" encoding="UTF-8" standalone="no"?>
<!-- Created with Inkscape (http://www.inkscape.org/) -->
<!-- https://commons.wikimedia.org/wiki/File:Takeda_mon.svg -->
<svg
   xmlns:dc="http://purl.org/dc/elements/1.1/"
   xmlns:cc="http://web.resource.org/cc/"
   xmlns:rdf="http://www.w3.org/1999/02/22-rdf-syntax-ns#"
   xmlns:svg="http://www.w3.org/2000/svg"
   xmlns="http://www.w3.org/2000/svg"
   xmlns:sodipodi="http://sodipodi.sourceforge.net/DTD/sodipodi-0.dtd"
   xmlns:inkscape="http://www.inkscape.org/namespaces/inkscape"
   id="svg1910"
   sodipodi:version="0.32"
   inkscape:version="0.44.1"
   viewBox="0 0 200.00002 138.00002"
   width="200.00002"
   height="138.00002"
   version="1.0"
   sodipodi:docbase="D:\Documents and Settings\Ash_Crow\Bureau\wip"
   sodipodi:docname="Takeda_mon.svg">
  <metadata
     id="metadata1915">
    <rdf:RDF>
      <cc:Work
         rdf:about="">
        <dc:format>image/svg+xml</dc:format>
        <dc:type
           rdf:resource="http://purl.org/dc/dcmitype/StillImage" />
      </cc:Work>
    </rdf:RDF>
  </metadata>
  <defs
     id="defs1913" />
  <sodipodi:namedview
     inkscape:window-height="968"
     inkscape:window-width="1280"
     inkscape:pageshadow="2"
     inkscape:pageopacity="0.0"
     guidetolerance="10.0"
     gridtolerance="10.0"
     objecttolerance="10.0"
     borderopacity="1.0"
     bordercolor="#666666"
     pagecolor="#ffffff"
     id="base"
     inkscape:zoom="3.2117983"
     inkscape:cx="34.220214"
     inkscape:cy="53.66314"
     inkscape:window-x="-4"
     inkscape:window-y="-4"
     inkscape:current-layer="svg1910"
     showgrid="false"
     width="112.64321px"
     height="77.55px" />
  <g
     id="g8322"
     class="emblem-color"
     transform="matrix(3.129199,0,0,3.136364,-25.03359,-301.0909)">
    <path
       sodipodi:nodetypes="ccccc"
       id="path7420"
       d="M 40,96 L 25.015584,106.03415 L 39.965563,116.02387 L 54.929708,106.00663 L 40,96 z "
       style="fill:black;fill-opacity:1;fill-rule:evenodd;stroke:none;stroke-width:1px;stroke-linecap:butt;stroke-linejoin:miter;stroke-opacity:1" />
    <path
       sodipodi:nodetypes="ccccc"
       id="path8309"
       d="M 22.984416,107.97613 L 8,118.01028 L 22.949979,128 L 37.914124,117.98276 L 22.984416,107.97613 z "
       style="fill:black;fill-opacity:1;fill-rule:evenodd;stroke:none;stroke-width:1px;stroke-linecap:butt;stroke-linejoin:miter;stroke-opacity:1" />
    <path
       sodipodi:nodetypes="ccccc"
       id="path8311"
       d="M 39.984416,119.97613 L 25,130.01028 L 39.949979,140 L 54.914124,129.98276 L 39.984416,119.97613 z "
       style="fill:black;fill-opacity:1;fill-rule:evenodd;stroke:none;stroke-width:1px;stroke-linecap:butt;stroke-linejoin:miter;stroke-opacity:1" />
    <path
       sodipodi:nodetypes="ccccc"
       id="path8313"
       d="M 56.984416,107.97613 L 42,118.01028 L 56.949979,128 L 71.914124,117.98276 L 56.984416,107.97613 z "
       style="fill:black;fill-opacity:1;fill-rule:evenodd;stroke:none;stroke-width:1px;stroke-linecap:butt;stroke-linejoin:miter;stroke-opacity:1" />
  </g>
</svg>
